humanity-icon-theme/Humanity/actions/24/object-flip-horizontal.svg

<?xml version="1.0" encoding="UTF-8" standalone="no"?>
<!-- Created with Inkscape (http://www.inkscape.org/) -->
<svg
   xmlns:svg="http://www.w3.org/2000/svg"
   xmlns="http://www.w3.org/2000/svg"
   xmlns:xlink="http://www.w3.org/1999/xlink"
   version="1.0"
   width="24"
   height="24"
   id="svg3301">
  <defs
     id="defs3303">
    <linearGradient
       id="linearGradient4873">
      <stop
         id="stop4875"
         style="stop-color:#ffffff;stop-opacity:1"
         offset="0" />
      <stop
         id="stop4877"
         style="stop-color:#ffffff;stop-opacity:0"
         offset="1" />
    </linearGradient>
    <linearGradient
       x1="36.460045"
       y1="0.91154361"
       x2="26.418295"
       y2="11.147305"
       id="linearGradient3639"
       xlink:href="#linearGradient4873"
       gradientUnits="userSpaceOnUse"
       gradientTransform="matrix(0.3446423,-0.3446422,0.3381098,0.3381098,-0.86599,20.32142)" />
    <linearGradient
       id="linearGradient3390-178-986-453">
      <stop
         id="stop3624"
         style="stop-color:#bb2b12;stop-opacity:1"
         offset="0" />
      <stop
         id="stop3626"
         style="stop-color:#cd7233;stop-opacity:1"
         offset="1" />
    </linearGradient>
    <linearGradient
       x1="17.962656"
       y1="17.004082"
       x2="17.962656"
       y2="5.9999995"
       id="linearGradient3288"
       xlink:href="#linearGradient3390-178-986-453"
       gradientUnits="userSpaceOnUse" />
    <linearGradient
       id="linearGradient7012-661-145-733-759-865-745-661-970-94">
      <stop
         id="stop3618"
         style="stop-color:#f0c178;stop-opacity:1"
         offset="0" />
      <stop
         id="stop3270"
         style="stop-color:#e18941;stop-opacity:1"
         offset="0.5" />
      <stop
         id="stop3620"
         style="stop-color:#ec4f18;stop-opacity:1"
         offset="1" />
    </linearGradient>
    <linearGradient
       x1="12.019211"
       y1="5.9999995"
       x2="12.019211"
       y2="17.000002"
       id="linearGradient3635"
       xlink:href="#linearGradient7012-661-145-733-759-865-745-661-970-94"
       gradientUnits="userSpaceOnUse"
       gradientTransform="translate(-1.000437,0)" />
    <linearGradient
       id="linearGradient5105-262-943-861">
      <stop
         id="stop2487"
         style="stop-color:#0d0d0d;stop-opacity:1"
         offset="0" />
      <stop
         id="stop2489"
         style="stop-color:#0d0d0d;stop-opacity:0"
         offset="1" />
    </linearGradient>
    <radialGradient
       cx="11.25"
       cy="19.03125"
       r="8.0625"
       fx="11.25"
       fy="19.03125"
       id="radialGradient3299"
       xlink:href="#linearGradient5105-262-943-861"
       gradientUnits="userSpaceOnUse"
       gradientTransform="matrix(-1.4061954,0,0,0.3867044,27.819698,7.522738)" />
  </defs>
  <g
     id="layer1">
    <g
       id="g3328">
      <g
         transform="matrix(-1,0,0,1,24,0)"
         id="g3369">
        <path
           d="M 17.511803,9.5 L 17.525843,6.4999993 C 17.525843,6.4999993 23.623,11.690716 23.623,11.690716 L 17.525839,16.5 L 17.512899,13.5 L 6.502871,13.5 L 6.489927,16.5 L 0.39277,11.690716 C 0.39277,11.690716 6.489927,6.4999993 6.489927,6.4999993 L 6.503967,9.5 L 17.511803,9.5 L 17.511803,9.5 z"
           id="path2849"
           style="fill:url(#linearGradient3635);fill-opacity:1;stroke:url(#linearGradient3288);stroke-width:1;stroke-linecap:butt;stroke-linejoin:round;stroke-miterlimit:4;stroke-dasharray:none;stroke-opacity:1" />
        <path
           d="M 18.516207,10.5 L 18.516207,8.5663261 C 18.516207,8.5663261 22.208787,11.690716 22.208787,11.690716 L 18.516207,14.4832 L 18.516207,12.5 L 5.499563,12.5 L 5.499563,14.4832 L 1.806983,11.690716 C 1.806983,11.690716 5.499563,8.5663261 5.499563,8.5663261 L 5.499563,10.5 L 18.516207,10.5 z"
           id="path2851"
           style="opacity:0.4;fill:none;stroke:url(#linearGradient3639);stroke-width:1.00474763;stroke-linecap:butt;stroke-linejoin:miter;stroke-miterlimit:4;stroke-dasharray:none;stroke-opacity:1" />
      </g>
    </g>
    <path
       d="M 0.66255,14.882198 C 0.66255,16.604113 5.738499,18 12,18 C 18.261501,18 23.337451,16.604113 23.33745,14.882198 C 23.337451,13.160283 18.261501,11.764397 12,11.764397 C 5.738499,11.764397 0.66255,13.160283 0.66255,14.882198 L 0.66255,14.882198 z"
       id="path2621"
       style="opacity:0.16292138;fill:url(#radialGradient3299);fill-opacity:1;fill-rule:nonzero;stroke:none;stroke-width:1;marker:none;visibility:visible;display:inline;overflow:visible" />
  </g>
</svg>

<?xml version="1.0" encoding="UTF-8" standalone="no"?>
<!-- Created with Inkscape (http://www.inkscape.org/) -->
<svg id="svg3301" xmlns="http://www.w3.org/2000/svg" height="24" width="24" version="1.0" xmlns:xlink="http://www.w3.org/1999/xlink">
 <defs id="defs3303">
  <linearGradient id="linearGradient3639" y2="11.147" gradientUnits="userSpaceOnUse" x2="26.418" gradientTransform="matrix(.34464 -.34464 .33811 .33811 -.86599 20.321)" y1=".91154" x1="36.46">
   <stop id="stop4875" style="stop-color:#fff" offset="0"/>
   <stop id="stop4877" style="stop-color:#fff;stop-opacity:0" offset="1"/>
  </linearGradient>
  <linearGradient id="linearGradient3288" y2="6" gradientUnits="userSpaceOnUse" x2="17.963" y1="17.004" x1="17.963">
   <stop id="stop3624" style="stop-color:#bb2b12" offset="0"/>
   <stop id="stop3626" style="stop-color:#cd7233" offset="1"/>
  </linearGradient>
  <linearGradient id="linearGradient3635" y2="17" gradientUnits="userSpaceOnUse" x2="12.019" gradientTransform="translate(-1.0004)" y1="6" x1="12.019">
   <stop id="stop3618" style="stop-color:#f0c178" offset="0"/>
   <stop id="stop3270" style="stop-color:#e18941" offset=".5"/>
   <stop id="stop3620" style="stop-color:#ec4f18" offset="1"/>
  </linearGradient>
  <radialGradient id="radialGradient3299" gradientUnits="userSpaceOnUse" cy="19.031" cx="11.25" gradientTransform="matrix(-1.4062 0 0 .38670 27.82 7.5227)" r="8.0625">
   <stop id="stop2487" style="stop-color:#0d0d0d" offset="0"/>
   <stop id="stop2489" style="stop-color:#0d0d0d;stop-opacity:0" offset="1"/>
  </radialGradient>
 </defs>
 <g id="layer1">
  <g id="g3328">
   <g id="g3369" transform="matrix(-1,0,0,1,24,0)">
    <path id="path2849" style="stroke-linejoin:round;stroke:url(#linearGradient3288);fill:url(#linearGradient3635)" d="m17.512 9.5l0.014-3 6.097 5.191-6.097 4.809-0.013-3h-11.01l-0.0131 3-6.0971-4.809c-0.00003 0 6.0971-5.191 6.0971-5.191l0.0141 3h11.008z"/>
    <path id="path2851" style="opacity:.4;stroke:url(#linearGradient3639);stroke-width:1.0047;fill:none" d="m18.516 10.5v-1.9337l3.693 3.1247-3.693 2.792v-1.983h-13.016l-0.0004 1.983-3.6926-2.792 3.6926-3.1247v1.9337h13.016z"/>
   </g>
  </g>
  <path id="path2621" style="opacity:.16292;fill:url(#radialGradient3299)" d="m0.66255 14.882c0 1.722 5.076 3.118 11.337 3.118 6.262 0 11.337-1.396 11.337-3.118s-5.075-3.118-11.337-3.118c-6.2615 0-11.337 1.396-11.337 3.118h-0.00045z"/>
 </g>
</svg>
